wp-content/themes/platinum-theme/img/icons/facebook-icon.svg

<svg height="20" width="9" xmlns="http://www.w3.org/2000/svg" xmlns:xlink="http://www.w3.org/1999/xlink">
<path d="m1.921 9.416v9.034c0 .13.105.236.236.236h3.37c.13 0 .236-.107.236-.236v-9.182h2.443a.234.234 0 0 0 .235-.215l.236-2.766a.236.236 0 0 0 -.237-.255h-2.677v-1.962c0-.46.375-.834.836-.834h1.883a.235.235 0 0 0 .237-.235v-2.766a.235.235 0 0 0 -.237-.235h-3.18a3.372 3.372 0 0 0 -3.382 3.364v2.668h-1.684a.235.235 0 0 0 -.236.235v2.767c0 .13.105.234.236.234h1.685z" fill="#c1ad93" fill-rule="evenodd" mask="url(#a)" transform="translate(0 .86)"/>
</svg>

<svg xmlns="http://www.w3.org/2000/svg" xmlns:xlink="http://www.w3.org/1999/xlink" width="9" height="20" viewBox="0 0 9 20">
    <defs>
        <path id="a" d="M0 0h8.72v18.685H0z"/>
    </defs>
    <g fill="none" fill-rule="evenodd" transform="translate(0 .86)">
        <mask id="b" fill="#fff">
            <use xlink:href="#a"/>
        </mask>
        <path fill="#C1AD93" d="M1.921 9.416v9.034c0 .13.105.236.236.236h3.37c.13 0 .236-.107.236-.236V9.268h2.443a.234.234 0 0 0 .235-.215l.236-2.766a.236.236 0 0 0-.237-.255H5.763V4.07c0-.46.375-.834.836-.834h1.883a.235.235 0 0 0 .237-.235V.235A.235.235 0 0 0 8.482 0h-3.18A3.372 3.372 0 0 0 1.92 3.364v2.668H.236A.235.235 0 0 0 0 6.267v2.767c0 .13.105.234.236.234h1.685v.148z" mask="url(#b)"/>
    </g>
</svg>
